actions/16/list-add.svg

<svg xmlns="http://www.w3.org/2000/svg" xmlns:xlink="http://www.w3.org/1999/xlink" viewBox="0 0 16 16"><defs><linearGradient id="a"><stop offset="0" stop-color="#737373"/><stop offset=".262" stop-color="#636363"/><stop offset=".705" stop-color="#4b4b4b"/><stop offset="1" stop-color="#3f3f3f"/></linearGradient><radialGradient xlink:href="#a" id="c" gradientUnits="userSpaceOnUse" gradientTransform="matrix(0 3.75 -3.875 0 20.625 -46)" cx="12" cy="3" fx="12" fy="3" r="8"/><clipPath id="d"><path d="M7 1c-.554 0-1 .446-1 1v4H2c-.554 0-1 .446-1 1v2c0 .554.446 1 1 1h4v4c0 .554.446 1 1 1h2c.554 0 1-.446 1-1v-4h4c.554 0 1-.446 1-1V7c0-.554-.446-1-1-1h-4V2c0-.554-.446-1-1-1H7z" fill="url(#b)" fill-rule="evenodd"/></clipPath><radialGradient xlink:href="#a" id="b" gradientUnits="userSpaceOnUse" gradientTransform="matrix(0 3.75 -3.875 0 20.625 -46)" cx="12" cy="3" fx="12" fy="3" r="8"/></defs><path d="M7 2c-.554 0-1 .446-1 1v4H2c-.554 0-1 .446-1 1v2c0 .554.446 1 1 1h4v4c0 .554.446 1 1 1h2c.554 0 1-.446 1-1v-4h4c.554 0 1-.446 1-1V8c0-.554-.446-1-1-1h-4V3c0-.554-.446-1-1-1H7z" opacity=".35" fill="#fff" fill-rule="evenodd"/><path d="M7 1c-.554 0-1 .446-1 1v4H2c-.554 0-1 .446-1 1v2c0 .554.446 1 1 1h4v4c0 .554.446 1 1 1h2c.554 0 1-.446 1-1v-4h4c.554 0 1-.446 1-1V7c0-.554-.446-1-1-1h-4V2c0-.554-.446-1-1-1H7z" fill="url(#c)" fill-rule="evenodd"/><path clip-path="url(#d)" d="M7 1c-.554 0-1 .446-1 1v4H2c-.554 0-1 .446-1 1v2c0 .554.446 1 1 1h4v4c0 .554.446 1 1 1h2c.554 0 1-.446 1-1v-4h4c.554 0 1-.446 1-1V7c0-.554-.446-1-1-1h-4V2c0-.554-.446-1-1-1H7z" opacity=".1" fill="none" stroke="#000" stroke-width="2"/></svg>

<?xml version="1.0" encoding="UTF-8" standalone="no"?>
<svg
   xmlns:dc="http://purl.org/dc/elements/1.1/"
   xmlns:cc="http://creativecommons.org/ns#"
   xmlns:rdf="http://www.w3.org/1999/02/22-rdf-syntax-ns#"
   xmlns:svg="http://www.w3.org/2000/svg"
   xmlns="http://www.w3.org/2000/svg"
   xmlns:xlink="http://www.w3.org/1999/xlink"
   version="1.1"
   width="16"
   height="16"
   id="svg4524">
  <defs
     id="defs4526">
    <linearGradient
       id="linearGradient2867-449-88-871-390-598-476-591-434-148-57-177-641-289-620-227-114-444-680-744-4-1">
      <stop
         id="stop5430-5-0"
         style="stop-color:#737373;stop-opacity:1"
         offset="0" />
      <stop
         id="stop5432-2-0"
         style="stop-color:#636363;stop-opacity:1"
         offset="0.26238" />
      <stop
         id="stop5434-9-6"
         style="stop-color:#4b4b4b;stop-opacity:1"
         offset="0.704952" />
      <stop
         id="stop5436-2-7"
         style="stop-color:#3f3f3f;stop-opacity:1"
         offset="1" />
    </linearGradient>
    <radialGradient
       cx="16.202444"
       cy="-19.005346"
       r="19.99999"
       fx="16.202444"
       fy="-19.005346"
       id="radialGradient3769"
       xlink:href="#linearGradient2867-449-88-871-390-598-476-591-434-148-57-177-641-289-620-227-114-444-680-744-4-1"
       gradientUnits="userSpaceOnUse"
       gradientTransform="matrix(0,1.5000006,-1.5241254,0,-16.959842,-23.077676)" />
    <radialGradient
       cx="16.202444"
       cy="-19.005346"
       r="19.99999"
       fx="16.202444"
       fy="-19.005346"
       id="radialGradient3896"
       xlink:href="#linearGradient2867-449-88-871-390-598-476-591-434-148-57-177-641-289-620-227-114-444-680-744-4-1"
       gradientUnits="userSpaceOnUse"
       gradientTransform="matrix(0,1.5000006,-1.5241254,0,-17.131885,-23.077676)" />
    <radialGradient
       cx="22.652411"
       cy="-40.142262"
       r="19.99999"
       fx="22.652411"
       fy="-40.142262"
       id="radialGradient3896-0"
       xlink:href="#linearGradient2867-449-88-871-390-598-476-591-434-148-57-177-641-289-620-227-114-444-680-744-4-1-5"
       gradientUnits="userSpaceOnUse"
       gradientTransform="matrix(-1.4583908,0,0,-1.5241254,45.582541,-59.323023)" />
    <linearGradient
       id="linearGradient2867-449-88-871-390-598-476-591-434-148-57-177-641-289-620-227-114-444-680-744-4-1-5">
      <stop
         id="stop5430-5-0-9"
         style="stop-color:#737373;stop-opacity:1"
         offset="0" />
      <stop
         id="stop5432-2-0-0"
         style="stop-color:#636363;stop-opacity:1"
         offset="0.26238" />
      <stop
         id="stop5434-9-6-8"
         style="stop-color:#4b4b4b;stop-opacity:1"
         offset="0.704952" />
      <stop
         id="stop5436-2-7-0"
         style="stop-color:#3f3f3f;stop-opacity:1"
         offset="1" />
    </linearGradient>
    <radialGradient
       xlink:href="#linearGradient2867-449-88-871-390-598-476-591-434-148-57-177-641-289-620-227-114-444-680-744-4-1-5"
       id="radialGradient4419"
       gradientUnits="userSpaceOnUse"
       gradientTransform="matrix(1.5646867e-7,3.7500001,-3.8749999,1.625e-7,20.624999,-46)"
       cx="12"
       cy="3"
       fx="12"
       fy="3"
       r="8" />
    <clipPath
       clipPathUnits="userSpaceOnUse"
       id="clipPath4477">
      <path
         id="path4479"
         d="M 7,1 C 6.446,1 6,1.446 6,2 L 6,6 2,6 C 1.446,6 1,6.446 1,7 l 0,2 c 0,0.554 0.446,1 1,1 l 4,0 0,4 c 0,0.554 0.446,1 1,1 l 2,0 c 0.554,0 1,-0.446 1,-1 l 0,-4 4,0 c 0.554,0 1,-0.446 1,-1 L 15,7 C 15,6.446 14.554,6 14,6 L 10,6 10,2 C 10,1.446 9.554,1 9,1 L 7,1 Z"
         style="fill:url(#radialGradient4481);fill-opacity:1;fill-rule:evenodd;stroke:none;stroke-width:1px;stroke-linecap:butt;stroke-linejoin:miter;stroke-opacity:1" />
    </clipPath>
    <radialGradient
       xlink:href="#linearGradient2867-449-88-871-390-598-476-591-434-148-57-177-641-289-620-227-114-444-680-744-4-1-5"
       id="radialGradient4481"
       gradientUnits="userSpaceOnUse"
       gradientTransform="matrix(1.5646867e-7,3.7500001,-3.8749999,1.625e-7,20.624999,-46)"
       cx="12"
       cy="3"
       fx="12"
       fy="3"
       r="8" />
  </defs>
  <metadata
     id="metadata4529">
    <rdf:RDF>
      <cc:Work
         rdf:about="">
        <dc:format>image/svg+xml</dc:format>
        <dc:type
           rdf:resource="http://purl.org/dc/dcmitype/StillImage" />
        <dc:title />
      </cc:Work>
    </rdf:RDF>
  </metadata>
  <path
     style="opacity:0.35;fill:#ffffff;fill-opacity:1;fill-rule:evenodd;stroke:none;stroke-width:1px;stroke-linecap:butt;stroke-linejoin:miter;stroke-opacity:1"
     clip-path="none"
     d="M 7 2 C 6.446 2 6 2.446 6 3 L 6 7 L 2 7 C 1.446 7 1 7.446 1 8 L 1 10 C 1 10.554 1.446 11 2 11 L 6 11 L 6 15 C 6 15.554 6.446 16 7 16 L 9 16 C 9.554 16 10 15.554 10 15 L 10 11 L 14 11 C 14.554 11 15 10.554 15 10 L 15 8 C 15 7.446 14.554 7 14 7 L 10 7 L 10 3 C 10 2.446 9.554 2 9 2 L 7 2 z "
     id="path4197" />
  <path
     style="fill:url(#radialGradient4419);fill-opacity:1;fill-rule:evenodd;stroke:none;stroke-width:1px;stroke-linecap:butt;stroke-linejoin:miter;stroke-opacity:1"
     d="M 7 1 C 6.446 1 6 1.446 6 2 L 6 6 L 2 6 C 1.446 6 1 6.446 1 7 L 1 9 C 1 9.554 1.446 10 2 10 L 6 10 L 6 14 C 6 14.554 6.446 15 7 15 L 9 15 C 9.554 15 10 14.554 10 14 L 10 10 L 14 10 C 14.554 10 15 9.554 15 9 L 15 7 C 15 6.446 14.554 6 14 6 L 10 6 L 10 2 C 10 1.446 9.554 1 9 1 L 7 1 z "
     id="path4417" />
  <path
     style="opacity:0.1;fill:none;fill-opacity:1;fill-rule:evenodd;stroke:#000000;stroke-width:2;stroke-linecap:butt;stroke-linejoin:miter;stroke-miterlimit:4;stroke-dasharray:none;stroke-opacity:1"
     clip-path="url(#clipPath4477)"
     d="M 7 1 C 6.446 1 6 1.446 6 2 L 6 6 L 2 6 C 1.446 6 1 6.446 1 7 L 1 9 C 1 9.554 1.446 10 2 10 L 6 10 L 6 14 C 6 14.554 6.446 15 7 15 L 9 15 C 9.554 15 10 14.554 10 14 L 10 10 L 14 10 C 14.554 10 15 9.554 15 9 L 15 7 C 15 6.446 14.554 6 14 6 L 10 6 L 10 2 C 10 1.446 9.554 1 9 1 L 7 1 z "
     id="path4173" />
</svg>
